arcticons-light/symbolic/apps/org.gnome.Calculator-symbolic.svg

<?xml version="1.0" encoding="UTF-8" standalone="no"?>
<svg
   id="Layer_2"
   data-name="Layer 2"
   viewBox="0 0 48 48"
   version="1.1"
   sodipodi:docname="org.gnome.Calculator.svg"
   xmlns:inkscape="http://www.inkscape.org/namespaces/inkscape"
   xmlns:sodipodi="http://sodipodi.sourceforge.net/DTD/sodipodi-0.dtd"
   xmlns="http://www.w3.org/2000/svg"
   xmlns:svg="http://www.w3.org/2000/svg">
  <sodipodi:namedview
     id="namedview6"
     pagecolor="#ffffff"
     bordercolor="#666666"
     borderopacity="1.0"
     inkscape:showpageshadow="2"
     inkscape:pageopacity="0.0"
     inkscape:pagecheckerboard="0"
     inkscape:deskcolor="#d1d1d1" />
  <defs
     id="defs1">
    <style
       id="style1">.cls-1{fill:none;stroke:#000;stroke-width:2px;stroke-linecap:round;stroke-linejoin:round;}</style>
  </defs>
  <path
     style="color:#000000;fill:#000000;stroke-linecap:round;stroke-linejoin:round;-inkscape-stroke:none"
     d="M 40.546875,24.949219 27.886719,25 a 1.0001,1.0001 0 0 0 -0.02148,0 C 26.310241,25.039586 25.039586,26.310241 25,27.865234 a 1.0001,1.0001 0 0 0 0,0.02539 v 12.628906 c -0.05091,1.645414 1.29349,3.030951 2.939453,3.03125 h 12.611328 c 1.645008,0 3,-1.354992 3,-3 V 27.890625 c 7.88e-4,-1.646847 -1.385191,-2.990387 -3.03125,-2.939453 z m 0.0078,2 a 1.0001,1.0001 0 0 0 0.02539,0 c 0.543508,-0.01682 0.970963,0.395685 0.970703,0.939453 a 1.0001,1.0001 0 0 0 0,0.002 v 12.660156 c 0,0.564129 -0.435871,1 -1,1 H 27.939453 C 27.395686,41.551041 26.983182,41.123586 27,40.580078 a 1.0001,1.0001 0 0 0 0,-0.0293 V 27.916016 c 0.013,-0.51047 0.405546,-0.903021 0.916016,-0.916016 z"
     id="path1" />
  <path
     style="color:#000000;fill:#000000;stroke-linecap:round;stroke-linejoin:round;-inkscape-stroke:none"
     d="M 7.4257812,4.5 C 5.8092459,4.5404259 4.4994946,5.8829593 4.5,7.5 v 12.609375 c -7.878e-4,1.646847 1.385191,2.990387 3.03125,2.939453 L 7.5,23.050781 h 12.609375 c 1.611871,0 2.941406,-1.329535 2.941406,-2.941406 V 7.4550781 C 23.059119,5.8374843 21.72699,4.4999785 20.109375,4.5 H 7.4492187 a 1.0001,1.0001 0 0 0 -0.023437,0 z m 0.048828,2 H 20.109375 c 0.533082,-7.1e-6 0.944154,0.4122374 0.941406,0.9453125 a 1.0001,1.0001 0 0 0 0,0.00391 V 20.109375 c 0,0.530992 -0.410414,0.941406 -0.941406,0.941406 H 7.5 a 1.0001,1.0001 0 0 0 -0.03125,0 C 6.9252426,21.067599 6.4997399,20.655096 6.5,20.111328 a 1.0001,1.0001 0 0 0 0,-0.002 V 7.5 C 6.499827,6.9463743 6.9211566,6.5138406 7.4746094,6.5 Z"
     id="path2" />
  <path
     style="color:#000000;fill:#000000;stroke-linecap:round;stroke-linejoin:round;-inkscape-stroke:none"
     d="m 28.869141,4.5 c -2.154381,0 -3.919922,1.7655412 -3.919922,3.9199219 V 19.130859 c 0,2.154381 1.765541,3.919922 3.919922,3.919922 H 39.580078 C 41.734459,23.050781 43.5,21.28524 43.5,19.130859 V 8.4199219 C 43.5,6.2655412 41.734459,4.5 39.580078,4.5 Z m 0,2 H 39.580078 C 40.661054,6.5 41.5,7.3389457 41.5,8.4199219 V 19.130859 c 0,1.080977 -0.838946,1.919922 -1.919922,1.919922 H 28.869141 c -1.080977,0 -1.919922,-0.838945 -1.919922,-1.919922 V 8.4199219 C 26.949219,7.3389457 27.788164,6.5 28.869141,6.5 Z"
     id="rect2" />
  <path
     style="color:#000000;fill:#000000;stroke-linecap:round;stroke-linejoin:round;-inkscape-stroke:none"
     d="M 7.4492187,24.949219 C 5.8322176,24.949219 4.5,26.283389 4.5,27.900391 v 12.65039 C 4.5,42.167782 5.8322176,43.5 7.4492187,43.5 H 20.099609 c 1.617002,0 2.951172,-1.332218 2.951172,-2.949219 v -12.65039 c 0,-1.617002 -1.33417,-2.951172 -2.951172,-2.951172 z m 0,2 H 20.099609 c 0.543597,0 0.951172,0.407575 0.951172,0.951172 v 12.65039 c 0,0.543597 -0.407575,0.949219 -0.951172,0.949219 H 7.4492187 C 6.905622,41.5 6.5,41.094378 6.5,40.550781 v -12.65039 c 0,-0.543597 0.405622,-0.951172 0.9492187,-0.951172 z"
     id="rect3" />
  <path
     style="color:#000000;fill:#000000;stroke-linecap:round;stroke-linejoin:round;-inkscape-stroke:none"
     d="m 13.779297,7.4199219 a 1,1 0 0 0 -1,1 V 19.130859 a 1,1 0 0 0 1,1 1,1 0 0 0 1,-1 V 8.4199219 a 1,1 0 0 0 -1,-1 z"
     id="line3" />
  <path
     style="color:#000000;fill:#000000;stroke-linecap:round;stroke-linejoin:round;-inkscape-stroke:none"
     d="m 8.4199219,12.779297 a 1,1 0 0 0 -1,1 1,1 0 0 0 1,1 H 19.130859 a 1,1 0 0 0 1,-1 1,1 0 0 0 -1,-1 z"
     id="line4" />
  <path
     style="color:#000000;fill:#000000;stroke-linecap:round;stroke-linejoin:round;-inkscape-stroke:none"
     d="m 28.869141,30.300781 a 1,1 0 0 0 -1,1 1,1 0 0 0 1,1 h 10.710937 a 1,1 0 0 0 1,-1 1,1 0 0 0 -1,-1 z"
     id="line5" />
  <path
     style="color:#000000;fill:#000000;stroke-linecap:round;stroke-linejoin:round;-inkscape-stroke:none"
     d="m 28.869141,36.140625 a 1,1 0 0 0 -1,1 1,1 0 0 0 1,1 h 10.710937 a 1,1 0 0 0 1,-1 1,1 0 0 0 -1,-1 z"
     id="line6" />
</svg>

<?xml version="1.0" encoding="UTF-8"?>
<svg id="Layer_2" data-name="Layer 2" version="1.1" viewBox="0 0 48 48" xmlns="http://www.w3.org/2000/svg">
 <defs id="defs4">
  <style id="style2">.cls-1{fill:none;stroke:#000;stroke-width:2px;stroke-linecap:round;stroke-linejoin:round;}</style>
 </defs>
 <path id="path6" d="m40.547 24.949-12.66 0.050781a1.0001 1.0001 0 0 0-0.02148 0c-1.555 0.039586-2.8257 1.3102-2.8652 2.8652a1.0001 1.0001 0 0 0 0 0.02539v12.629c-0.05091 1.6454 1.2935 3.031 2.9395 3.0312h12.611c1.645 0 3-1.355 3-3v-12.66c7.88e-4 -1.6468-1.3852-2.9904-3.0312-2.9395zm0.0078 2a1.0001 1.0001 0 0 0 0.02539 0c0.54351-0.01682 0.97096 0.39568 0.9707 0.93945a1.0001 1.0001 0 0 0 0 2e-3v12.66c0 0.56413-0.43587 1-1 1h-12.611c-0.54377 2.13e-4 -0.95627-0.42724-0.93945-0.97075a1.0001 1.0001 0 0 0 0-0.0293v-12.635c0.013-0.51047 0.40555-0.90302 0.91602-0.91602z" color="#000000" stroke-linecap="round" stroke-linejoin="round" style="-inkscape-stroke:none"/>
 <path id="path8" d="m7.4258 4.5c-1.6165 0.040426-2.9263 1.383-2.9258 3v12.609c-7.878e-4 1.6468 1.3852 2.9904 3.0312 2.9395l-0.03125 0.001953h12.609c1.6119 0 2.9414-1.3295 2.9414-2.9414v-12.654c0.008338-1.6176-1.3238-2.9551-2.9414-2.9551h-12.66a1.0001 1.0001 0 0 0-0.023437 0zm0.048828 2h12.635c0.53308-7.1e-6 0.94415 0.41224 0.94141 0.94531a1.0001 1.0001 0 0 0 0 0.00391v12.66c0 0.53099-0.41041 0.94141-0.94141 0.94141h-12.609a1.0001 1.0001 0 0 0-0.03125 0c-0.54351 0.016818-0.96901-0.39568-0.96875-0.93945a1.0001 1.0001 0 0 0 0-2e-3v-12.609c-1.73e-4 -0.55363 0.42116-0.98616 0.97461-1z" color="#000000" stroke-linecap="round" stroke-linejoin="round" style="-inkscape-stroke:none"/>
 <path id="rect10" d="m28.869 4.5c-2.1544 0-3.9199 1.7655-3.9199 3.9199v10.711c0 2.1544 1.7655 3.9199 3.9199 3.9199h10.711c2.1544 0 3.9199-1.7655 3.9199-3.9199v-10.711c0-2.1544-1.7655-3.9199-3.9199-3.9199zm0 2h10.711c1.081 0 1.9199 0.83895 1.9199 1.9199v10.711c0 1.081-0.83895 1.9199-1.9199 1.9199h-10.711c-1.081 0-1.9199-0.83894-1.9199-1.9199v-10.711c0-1.081 0.83894-1.9199 1.9199-1.9199z" color="#000000" stroke-linecap="round" stroke-linejoin="round" style="-inkscape-stroke:none"/>
 <path id="rect12" d="m7.4492 24.949c-1.617 0-2.9492 1.3342-2.9492 2.9512v12.65c0 1.617 1.3322 2.9492 2.9492 2.9492h12.65c1.617 0 2.9512-1.3322 2.9512-2.9492v-12.65c0-1.617-1.3342-2.9512-2.9512-2.9512zm0 2h12.65c0.5436 0 0.95117 0.40758 0.95117 0.95117v12.65c0 0.5436-0.40758 0.94922-0.95117 0.94922h-12.65c-0.5436 0-0.94922-0.40562-0.94922-0.94922v-12.65c0-0.5436 0.40562-0.95117 0.94922-0.95117z" color="#000000" stroke-linecap="round" stroke-linejoin="round" style="-inkscape-stroke:none"/>
 <path id="line14" d="m13.779 7.4199a1 1 0 0 0-1 1v10.711a1 1 0 0 0 1 1 1 1 0 0 0 1-1v-10.711a1 1 0 0 0-1-1z" color="#000000" stroke-linecap="round" stroke-linejoin="round" style="-inkscape-stroke:none"/>
 <path id="line16" d="m8.4199 12.779a1 1 0 0 0-1 1 1 1 0 0 0 1 1h10.711a1 1 0 0 0 1-1 1 1 0 0 0-1-1z" color="#000000" stroke-linecap="round" stroke-linejoin="round" style="-inkscape-stroke:none"/>
 <path id="line18" d="m28.869 30.301a1 1 0 0 0-1 1 1 1 0 0 0 1 1h10.711a1 1 0 0 0 1-1 1 1 0 0 0-1-1z" color="#000000" stroke-linecap="round" stroke-linejoin="round" style="-inkscape-stroke:none"/>
 <path id="line20" d="m28.869 36.141a1 1 0 0 0-1 1 1 1 0 0 0 1 1h10.711a1 1 0 0 0 1-1 1 1 0 0 0-1-1z" color="#000000" stroke-linecap="round" stroke-linejoin="round" style="-inkscape-stroke:none"/>
</svg>
